svgs/sharp-solid/chair-office.svg

<svg xmlns="http://www.w3.org/2000/svg" viewBox="0 0 448 512"><!--! Font Awesome Pro 6.6.0 by @fontawesome - https://fontawesome.com License - https://fontawesome.com/license (Commercial License) Copyright 2024 Fonticons, Inc. --><path d="M352 0L96 0l0 256 256 0L352 0zM64 160l0-32L0 128l0 32 0 64 0 32 64 0 0-32 0-64zm384 0l0-32-64 0 0 32 0 64 0 32 64 0 0-32 0-64zM256 384l160 0 0-32-32-64L64 288 32 352l0 32 160 0 0 64-32 0-32 0 0 64 32 0 64 0 64 0 32 0 0-64-32 0-32 0 0-64z"/></svg>

<svg xmlns="http://www.w3.org/2000/svg" viewBox="0 0 448 512"><!--! Font Awesome Pro 6.4.0 by @fontawesome - https://fontawesome.com License - https://fontawesome.com/license (Commercial License) Copyright 2023 Fonticons, Inc. --><path d="M352 0H96V256H352V0zM64 160V128H0v32 64 32H64V224 160zm384 0V128H384v32 64 32h64V224 160zM256 384H416V352l-32-64H64L32 352v32H192v64H160 128v64h32 64 64 32V448H288 256V384z"/></svg>
